X: 25947
T: Maurice O'Keeffe's
R: polka
M: 2/4
K: Gmajor
|:DG FA|GB AB/c/|dA FA|GF ED|
DG FA|GB AB/c/|dA FA|G2 G2:|
|:B2 BA/B/|cB AB/c/|dA FA|GF ED|
B2 BA/B/|cB AB/c/|dA F/G/A/F/|G2 G2:|

